static/images/supertagger.svg

<svg width="520" height="520" fill="none" xmlns="http://www.w3.org/2000/svg"><g clip-path="url(#a)"><path d="M520.051 257.113c.01 50.865-15.231 100.59-43.797 142.887-28.566 42.297-69.173 75.266-116.685 94.738-47.513 19.472-99.797 24.572-150.24 14.655-50.444-9.917-96.781-34.406-133.151-70.369C39.808 403.061 15.038 357.239 5 307.353-5.037 257.466.11 205.757 19.788 158.763c19.68-46.993 53.008-87.16 95.77-115.42C158.32 15.084 208.595 0 260.026 0c68.954 0 135.085 27.087 183.847 75.304 48.763 48.216 76.165 113.614 76.178 181.809Z" fill="#0B9072"/><path d="M81.062 322.797c6.144-43.806 115.931-101.285 190.897-93.132 74.966 8.154 145.016 57.075 162.938 93.132 17.922 36.058-8.398 165.704-8.398 165.704H110.403S70.564 398.66 81.062 322.797Z" fill="#161515"/><path d="M143.479 227.994s-8.962-16.054 11.777-41.02c20.738-24.967 120.488-47.098 172.053-9.42s58.017 38.539 54.893 50.643c-3.123 12.103-80.701 62.999-86.334 85.434-5.632 22.435-31.952 60.771-33.744 60.771-1.793 0-23.453-44.363-40.966-67.658-17.512-23.296-77.679-78.75-77.679-78.75Z" fill="#161515"/><path d="M181.016 168.134c-1.126 15.193 14.031 66.494 30.263 88.675 16.232 22.182 40.351 36.058 54.586 37.172 14.235 1.114 36.561-15.193 51.718-44.768 15.157-29.576 27.088-83.865 27.088-83.865l-163.655 2.786Z" fill="#FFB18F"/><path d="M343.492 170.565a35.282 35.282 0 0 0-5.121-5.065l-157.613 2.684c-.871 11.496 7.886 44.617 19.356 69.381 17.922-5.925 36.152-12.205 46.802-16.965 10.651-4.761 3.995-14.18 13.212-15.852 9.217-1.671 7.527 15.193 15.362 17.219 5.581 1.57 30.314 10.736 46.649 16.864a488.65 488.65 0 0 0 21.353-68.266Z" fill="#DB826A"/><path d="M145.223 222.17s27.753-31.753 108.915-31.044c81.162.709 120.694 32.614 120.694 32.614s-71.331-26.79-126.019-24.815c-46.547 1.621-103.59 23.245-103.59 23.245Z" fill="#90CED6"/><path d="M133.957 227.437c-1.946-.507 34.718-121.543 83.159-154.815 27.754-19.143 79.37-18.688 104.563 2.38 33.079 27.6 69.487 151.32 67.849 155.22-1.639 3.899-43.423-32.209-129.143-34.387-87.409-2.177-120.283 33.273-126.428 31.602Z" fill="#353535"/><path d="M133.956 227.437s4.148-8.254 8.756-6.381c32.363 13.319 103.079 78.142 113.883 113.288 14.031 45.579 7.937 72.115 7.937 72.115s-21.865-58.745-54.381-99.766c-25.91-32.715-76.195-79.256-76.195-79.256Z" fill="#353535"/><path d="M389.527 230.223s-5.94-11.395-9.525-9.42c-30.211 16.155-101.695 78.75-112.653 113.845-14.031 45.578-2.97 71.811-2.97 71.811s16.334-56.618 48.85-97.639c26.116-32.715 76.298-78.597 76.298-78.597Z" fill="#353535"/><path d="M248.862 233.109a54.675 54.675 0 0 1 10.907-5.064c2.611-.658 13.467 6.33 12.033 7.191-1.433.861-24.067-.202-22.94-2.127Z" fill="#DB826A"/><path d="M240.259 258.936c-.614-1.519 10.242-4.659 22.326-5.064 12.085-.405 19.868.912 17.922 1.975-1.945 1.064-10.702 0-17.717.608-7.015.608-20.79 6.786-22.531 2.481Z" fill="#7C4639"/><path d="M238.724 253.063c2.56 1.468-4.711 5.57-1.69 9.166 3.789 4.406 7.886 1.924 7.886 3.038 0 1.115-5.735 3.697-10.651-3.038-2.97-4.001 1.126-11.04 4.455-9.166Z" fill="#DB826A"/><path d="M267.347 70.191c-30.314 0-56.583 97.741-62.881 129.899a259.707 259.707 0 0 1 55.917-4.254 285.96 285.96 0 0 1 59.707 7.698c-5.275-34.286-12.085-133.343-52.743-133.343Z" fill="#444"/><path d="M262.177 400.483c-4.167-36.829-20.033-71.403-45.318-98.753a243.357 243.357 0 0 0-50.694-43.097 634.885 634.885 0 0 1 43.986 48.06c26.269 33.171 45.574 77.838 52.026 93.79Z" fill="#90CED6"/><path d="M101.643 289.828C63.699 319.404 19.047 432.54 12.339 469.104c-6.708 36.564 119.515 49.731 142.456 37.526 22.94-12.205-13.007-164.994-26.474-182.719-13.467-17.725-18.844-40.21-26.678-34.083Z" fill="#353535"/><path d="M313.384 308.82a565.723 565.723 0 0 1 40.249-44.059 263.679 263.679 0 0 0-41.375 36.969c-24.691 26.701-40.399 60.32-44.959 96.221 5.889-17.37 21.25-57.783 46.085-89.131Z" fill="#474747"/><path d="M112.656 355.461s-14.03 39.4-22.992 47.706c-8.961 8.305-25.245 2.228-35.332 9.419-10.088 7.192-11.727 28.816-11.727 28.816s22.48-16.611 44.55-8.305a37.985 37.985 0 0 0 20.277 1.453 37.734 37.734 0 0 0 18.077-9.202l-12.853-69.887Z" fill="#232323"/><path d="M114.904 442.973s-32.004-8.204-45.164 3.444a25.36 25.36 0 0 0-6.471 8.2 25.098 25.098 0 0 0-2.592 10.082 46.85 46.85 0 0 1 17.461-12.256c14.543-5.064 47.059 14.838 33.95-1.621l2.816-7.849Z" fill="#2B2B2B"/><path d="M408.524 289.828c37.943 29.576 82.595 142.712 89.303 179.276 6.708 36.564-119.515 49.731-142.456 37.526-22.94-12.205 13.007-164.994 26.474-182.719 13.467-17.725 18.895-40.21 26.679-34.083Z" fill="#353535"/><path d="M397.567 355.461s14.031 39.4 22.992 47.706c8.961 8.305 25.193 2.228 35.281 9.419 10.087 7.192 11.777 28.816 11.777 28.816s-22.479-16.611-44.6-8.305a38.04 38.04 0 0 1-20.276 1.445 37.781 37.781 0 0 1-18.078-9.194l12.904-69.887Z" fill="#232323"/><path d="M395.315 442.973s32.004-8.204 45.113 3.444a25.36 25.36 0 0 1 6.499 8.193 25.098 25.098 0 0 1 2.615 10.089 46.849 46.849 0 0 0-17.461-12.256c-14.543-5.064-47.11 14.838-33.95-1.621l-2.816-7.849Zm56.736-42.49s-5.121-14.231-15.362-18.13a145.003 145.003 0 0 1-24.528-14.129s5.121 25.827 10.856 27.752a104.545 104.545 0 0 0 29.034 4.507Z" fill="#2B2B2B"/><path d="M425.371 329.988H109.274v181.251h316.097V329.988Z" fill="#AAA"/><path d="M237.161 412.048c0-18.78 15.275-30.048 30.049-30.048 14.773 0 30.048 11.268 30.048 30.048 0 18.029-27.044 45.574-28.296 46.826-.5.501-1.001.751-1.752.751-.752 0-1.252-.25-1.753-.751-1.252-1.252-28.296-29.047-28.296-46.826Z" fill="#0B9072"/><mask id="b" style="mask-type:alpha" maskUnits="userSpaceOnUse" x="237" y="382" width="61" height="78"><path d="M237.161 412.048c0-18.78 15.275-30.048 30.049-30.048 14.773 0 30.048 11.268 30.048 30.048 0 18.029-27.044 45.574-28.296 46.826-.5.501-1.001.751-1.752.751-.752 0-1.252-.25-1.753-.751-1.252-1.252-28.296-29.047-28.296-46.826Z" fill="#0B9072"/></mask><g mask="url(#b)"><path fill="#0099AF" d="m267.02 420.814 21.016 21.016-21.353 21.353-21.016-21.016z"/><path d="m267.736 422.592 22.141 20.559c17.713-21.93 12.301-43.227 7.381-51.135l-29.522 30.576Z" fill="#051173"/><path fill="#53C5D5" d="m245.406 437.954 46.523-46.523 6.12 6.121-46.522 46.523z"/><path fill="#53C5D5" d="m271.748 421.01 19.175 19.175-6.12 6.121-19.176-19.175z"/></g><circle cx="266.682" cy="413.63" r="17.924" fill="#E4EBEC"/><g clip-path="url(#c)"><path d="M272.644 414.379c1.411-.277 2.48-1.145 2.779-2.988.411-2.517-1.569-3.929-4.285-4.907l.911-3.401-2.153-.576-.887 3.31a100.93 100.93 0 0 0-1.725-.438l.893-3.333-2.151-.576-.911 3.399a66.99 66.99 0 0 1-1.375-.349l.002-.01-2.968-.797-.592 2.211s1.597.397 1.564.418c.871.234 1.025.797.994 1.239l-1.037 3.874-1.458 5.441c-.109.254-.383.632-.993.469.021.031-1.566-.42-1.566-.42l-1.089 2.357 2.801.751c.521.14 1.032.285 1.534.424l-.919 3.439 2.149.577.911-3.403c.589.17 1.158.328 1.716.477l-.908 3.387 2.153.576.921-3.432c3.671.769 6.439.571 7.63-2.612.959-2.563-.014-4.083-1.941-5.107Zm-5.96-6.553c1.214.325 5.131.976 4.478 3.415-.627 2.339-4.37 1.043-5.585.717l1.107-4.132Zm-2.888 10.775 1.222-4.557c1.458.391 6.141 1.213 5.423 3.894-.688 2.571-5.185 1.053-6.645.663Z" fill="#0B9072"/></g><path d="M425.371 511.087H109.274V520h316.097v-8.913Z" fill="#8C8C8C"/><path d="M199.603 508.656h-33.642v3.089h33.642v-3.089Zm169.031 0h-33.643v3.089h33.643v-3.089Zm56.737-178.212H109.274v4.203h316.097v-4.203Z" fill="#CECECE"/><path d="M58.172 400.483s5.12-14.231 15.362-18.13a144.984 144.984 0 0 0 24.527-14.129s-5.12 25.827-10.906 27.752a104.298 104.298 0 0 1-28.983 4.507Z" fill="#2B2B2B"/></g><defs><clipPath id="a"><path fill="#fff" d="M0 0h520v520H0z"/></clipPath><clipPath id="c"><path fill="#fff" transform="rotate(15 -1387.568 1191.08)" d="M0 0h18.97v24.029H0z"/></clipPath></defs></svg>

<svg width="520" height="520" viewBox="0 0 520 520" fill="none" xmlns="http://www.w3.org/2000/svg">
<g clip-path="url(#clip0_506_411)">
<path d="M520.051 257.113C520.061 307.978 504.82 357.703 476.254 400C447.688 442.297 407.081 475.266 359.569 494.738C312.056 514.21 259.772 519.31 209.329 509.393C158.885 499.476 112.548 474.987 76.1779 439.024C39.8076 403.061 15.0375 357.239 5.00018 307.353C-5.03711 257.466 0.109271 205.757 19.7885 158.763C39.4677 111.77 72.7958 71.6032 115.558 43.3435C158.32 15.0837 208.595 9.86276e-07 260.026 0C328.98 -1.32233e-06 395.111 27.087 443.873 75.3037C492.636 123.52 520.038 188.918 520.051 257.113Z" fill="#0B9072"/>
<path d="M81.0617 322.797C87.2064 278.991 196.993 221.512 271.959 229.665C346.925 237.819 416.975 286.74 434.897 322.797C452.819 358.855 426.499 488.501 426.499 488.501H110.403C110.403 488.501 70.5644 398.66 81.0617 322.797Z" fill="#161515"/>
<path d="M143.479 227.994C143.479 227.994 134.517 211.94 155.256 186.974C175.994 162.007 275.744 139.876 327.309 177.554C378.874 215.232 385.326 216.093 382.202 228.197C379.079 240.3 301.501 291.196 295.868 313.631C290.236 336.066 263.916 374.402 262.124 374.402C260.331 374.402 238.671 330.039 221.158 306.744C203.646 283.448 143.479 227.994 143.479 227.994Z" fill="#161515"/>
<path d="M181.016 168.134C179.89 183.327 195.047 234.628 211.279 256.809C227.511 278.991 251.63 292.867 265.865 293.981C280.1 295.095 302.426 278.788 317.583 249.213C332.74 219.637 344.671 165.348 344.671 165.348L181.016 168.134Z" fill="#FFB18F"/>
<path d="M343.492 170.565C341.964 168.708 340.248 167.011 338.371 165.5L180.758 168.184C179.887 179.68 188.644 212.801 200.114 237.565C218.036 231.64 236.266 225.36 246.916 220.6C257.567 215.839 250.911 206.42 260.128 204.748C269.345 203.077 267.655 219.941 275.49 221.967C281.071 223.537 305.804 232.703 322.139 238.831C330.918 216.617 338.055 193.801 343.492 170.565V170.565Z" fill="#DB826A"/>
<path d="M145.223 222.17C145.223 222.17 172.976 190.417 254.138 191.126C335.3 191.835 374.832 223.74 374.832 223.74C374.832 223.74 303.501 196.95 248.813 198.925C202.266 200.546 145.223 222.17 145.223 222.17Z" fill="#90CED6"/>
<path d="M133.957 227.437C132.011 226.93 168.675 105.894 217.116 72.6217C244.87 53.4787 296.486 53.9345 321.679 75.0018C354.758 102.602 391.166 226.322 389.528 230.222C387.889 234.121 346.105 198.013 260.385 195.835C172.976 193.658 140.102 229.108 133.957 227.437Z" fill="#353535"/>
<path d="M133.956 227.437C133.956 227.437 138.104 219.183 142.712 221.056C175.075 234.375 245.791 299.198 256.595 334.344C270.626 379.923 264.532 406.459 264.532 406.459C264.532 406.459 242.667 347.714 210.151 306.693C184.241 273.978 133.956 227.437 133.956 227.437Z" fill="#353535"/>
<path d="M389.527 230.223C389.527 230.223 383.587 218.828 380.002 220.803C349.791 236.958 278.307 299.553 267.349 334.648C253.318 380.226 264.379 406.459 264.379 406.459C264.379 406.459 280.713 349.841 313.229 308.82C339.345 276.105 389.527 230.223 389.527 230.223Z" fill="#353535"/>
<path d="M248.862 233.109C252.297 231.027 255.955 229.328 259.769 228.045C262.38 227.387 273.236 234.375 271.802 235.236C270.369 236.097 247.735 235.034 248.862 233.109Z" fill="#DB826A"/>
<path d="M240.259 258.936C239.645 257.417 250.501 254.277 262.585 253.872C274.67 253.467 282.453 254.784 280.507 255.847C278.562 256.911 269.805 255.847 262.79 256.455C255.775 257.063 242 263.241 240.259 258.936Z" fill="#7C4639"/>
<path d="M238.724 253.063C241.284 254.531 234.013 258.633 237.034 262.229C240.823 266.635 244.92 264.153 244.92 265.267C244.92 266.382 239.185 268.964 234.269 262.229C231.299 258.228 235.395 251.189 238.724 253.063Z" fill="#DB826A"/>
<path d="M267.347 70.1912C237.033 70.1912 210.764 167.932 204.466 200.09C222.892 196.658 241.643 195.232 260.383 195.836C280.506 196.295 300.521 198.875 320.09 203.534C314.815 169.248 308.005 70.1912 267.347 70.1912Z" fill="#444444"/>
<path d="M262.177 400.483C258.01 363.654 242.144 329.08 216.859 301.73C202.04 285.133 184.982 270.632 166.165 258.633C181.648 273.899 196.33 289.94 210.151 306.693C236.42 339.864 255.725 384.531 262.177 400.483Z" fill="#90CED6"/>
<path d="M101.643 289.828C63.6988 319.404 19.0469 432.54 12.3389 469.104C5.63083 505.668 131.854 518.835 154.795 506.63C177.735 494.425 141.788 341.636 128.321 323.911C114.854 306.186 109.477 283.701 101.643 289.828Z" fill="#353535"/>
<path d="M313.384 308.82C326.008 293.444 339.443 278.738 353.633 264.761C338.563 275.609 324.695 288.001 312.258 301.73C287.567 328.431 271.859 362.05 267.299 397.951C273.188 380.581 288.549 340.168 313.384 308.82Z" fill="#474747"/>
<path d="M112.656 355.461C112.656 355.461 98.6252 394.861 89.6641 403.167C80.703 411.472 64.4194 405.395 54.3318 412.586C44.2441 419.778 42.6055 441.402 42.6055 441.402C42.6055 441.402 65.0851 424.791 87.155 433.097C93.6507 435.414 100.666 435.917 107.432 434.55C114.198 433.183 120.452 430 125.509 425.348L112.656 355.461Z" fill="#232323"/>
<path d="M114.904 442.973C114.904 442.973 82.9002 434.769 69.7402 446.417C67.0324 448.678 64.8287 451.47 63.2686 454.617C61.7084 457.764 60.8259 461.197 60.6768 464.699C65.4627 459.335 71.4391 455.141 78.138 452.443C92.6806 447.379 125.197 467.281 112.088 450.822L114.904 442.973Z" fill="#2B2B2B"/>
<path d="M408.524 289.828C446.467 319.404 491.119 432.54 497.827 469.104C504.535 505.668 378.312 518.835 355.371 506.63C332.431 494.425 368.378 341.636 381.845 323.911C395.312 306.186 400.74 283.701 408.524 289.828Z" fill="#353535"/>
<path d="M397.567 355.461C397.567 355.461 411.598 394.861 420.559 403.167C429.52 411.472 445.752 405.395 455.84 412.586C465.927 419.778 467.617 441.402 467.617 441.402C467.617 441.402 445.138 424.791 423.017 433.097C416.52 435.408 409.506 435.909 402.741 434.542C395.976 433.175 389.722 429.995 384.663 425.348L397.567 355.461Z" fill="#232323"/>
<path d="M395.315 442.973C395.315 442.973 427.319 434.769 440.428 446.417C443.145 448.673 445.358 451.463 446.927 454.61C448.496 457.758 449.387 461.193 449.542 464.699C444.756 459.335 438.78 455.141 432.081 452.443C417.538 447.379 384.971 467.281 398.131 450.822L395.315 442.973Z" fill="#2B2B2B"/>
<path d="M452.051 400.483C452.051 400.483 446.93 386.252 436.689 382.353C428.064 378.45 419.849 373.718 412.161 368.224C412.161 368.224 417.282 394.051 423.017 395.976C432.429 398.837 442.205 400.354 452.051 400.483V400.483Z" fill="#2B2B2B"/>
<path d="M425.371 329.988H109.274V511.239H425.371V329.988Z" fill="#AAAAAA"/>
<path d="M237.161 412.048C237.161 393.268 252.436 382 267.21 382C281.983 382 297.258 393.268 297.258 412.048C297.258 430.077 270.214 457.622 268.962 458.874C268.462 459.375 267.961 459.625 267.21 459.625C266.458 459.625 265.958 459.375 265.457 458.874C264.205 457.622 237.161 429.827 237.161 412.048Z" fill="#0B9072"/>
<mask id="mask0_506_411" style="mask-type:alpha" maskUnits="userSpaceOnUse" x="237" y="382" width="61" height="78">
<path d="M237.161 412.048C237.161 393.268 252.436 382 267.21 382C281.983 382 297.258 393.268 297.258 412.048C297.258 430.077 270.214 457.622 268.962 458.874C268.462 459.375 267.961 459.625 267.21 459.625C266.458 459.625 265.958 459.375 265.457 458.874C264.205 457.622 237.161 429.827 237.161 412.048Z" fill="#0B9072"/>
</mask>
<g mask="url(#mask0_506_411)">
<rect x="267.02" y="420.814" width="29.7211" height="30.198" transform="rotate(45 267.02 420.814)" fill="#0099AF"/>
<path d="M267.736 422.592L289.877 443.151C307.59 421.221 302.178 399.924 297.258 392.016L267.736 422.592Z" fill="#051173"/>
<rect x="245.406" y="437.954" width="65.7925" height="8.65604" transform="rotate(-45 245.406 437.954)" fill="#53C5D5"/>
<rect x="271.748" y="421.01" width="27.1181" height="8.65604" transform="rotate(45 271.748 421.01)" fill="#53C5D5"/>
</g>
<circle cx="266.682" cy="413.63" r="17.9236" fill="#E4EBEC"/>
<g clip-path="url(#clip1_506_411)">
<path d="M272.644 414.379C274.055 414.102 275.124 413.234 275.423 411.391C275.834 408.874 273.854 407.462 271.138 406.484L272.049 403.083L269.896 402.507L269.009 405.817C268.442 405.666 267.862 405.522 267.284 405.379L268.177 402.046L266.026 401.47L265.115 404.869C264.647 404.754 264.187 404.64 263.74 404.52L263.742 404.51L260.774 403.713L260.182 405.924C260.182 405.924 261.779 406.321 261.746 406.342C262.617 406.576 262.771 407.139 262.74 407.581L261.703 411.455L260.245 416.896C260.136 417.15 259.862 417.528 259.252 417.365C259.273 417.396 257.686 416.945 257.686 416.945L256.597 419.302L259.398 420.053C259.919 420.193 260.43 420.338 260.932 420.477L260.013 423.916L262.162 424.493L263.073 421.09C263.662 421.26 264.231 421.418 264.789 421.567L263.881 424.954L266.034 425.53L266.955 422.098C270.626 422.867 273.394 422.669 274.585 419.486C275.544 416.923 274.571 415.403 272.644 414.379ZM266.684 407.826C267.898 408.151 271.815 408.802 271.162 411.241C270.535 413.58 266.792 412.284 265.577 411.958L266.684 407.826V407.826ZM263.796 418.601L265.018 414.044C266.476 414.435 271.159 415.257 270.441 417.938C269.753 420.509 265.256 418.991 263.796 418.601Z" fill="#0B9072"/>
</g>
<path d="M425.371 511.087H109.274V520H425.371V511.087Z" fill="#8C8C8C"/>
<path d="M199.603 508.656H165.961V511.745H199.603V508.656Z" fill="#CECECE"/>
<path d="M368.634 508.656H334.991V511.745H368.634V508.656Z" fill="#CECECE"/>
<path d="M425.371 330.444H109.274V334.647H425.371V330.444Z" fill="#CECECE"/>
<path d="M58.1719 400.483C58.1719 400.483 63.2925 386.252 73.5338 382.353C82.1586 378.45 90.3741 373.718 98.0615 368.224C98.0615 368.224 92.941 394.051 87.1547 395.976C77.76 398.835 68.0005 400.353 58.1719 400.483V400.483Z" fill="#2B2B2B"/>
</g>
<defs>
<clipPath id="clip0_506_411">
<rect width="520" height="520" fill="white"/>
</clipPath>
<clipPath id="clip1_506_411">
<rect width="18.9702" height="24.0289" fill="white" transform="translate(260.994 399.714) rotate(15)"/>
</clipPath>
</defs>
</svg>
